svgs/regular/grid-5.svg

<svg xmlns="http://www.w3.org/2000/svg" viewBox="0 0 448 512"><!--! Font Awesome Pro 6.6.0 by @fontawesome - https://fontawesome.com License - https://fontawesome.com/license (Commercial License) Copyright 2024 Fonticons, Inc. --><path d="M0 48c0-8.8 7.2-16 16-16l32 0c8.8 0 16 7.2 16 16l0 32c0 8.8-7.2 16-16 16L16 96C7.2 96 0 88.8 0 80L0 48zm0 96c0-8.8 7.2-16 16-16l32 0c8.8 0 16 7.2 16 16l0 32c0 8.8-7.2 16-16 16l-32 0c-8.8 0-16-7.2-16-16l0-32zm16 80l32 0c8.8 0 16 7.2 16 16l0 32c0 8.8-7.2 16-16 16l-32 0c-8.8 0-16-7.2-16-16l0-32c0-8.8 7.2-16 16-16zM0 336c0-8.8 7.2-16 16-16l32 0c8.8 0 16 7.2 16 16l0 32c0 8.8-7.2 16-16 16l-32 0c-8.8 0-16-7.2-16-16l0-32zm16 80l32 0c8.8 0 16 7.2 16 16l0 32c0 8.8-7.2 16-16 16l-32 0c-8.8 0-16-7.2-16-16l0-32c0-8.8 7.2-16 16-16zM96 48c0-8.8 7.2-16 16-16l32 0c8.8 0 16 7.2 16 16l0 32c0 8.8-7.2 16-16 16l-32 0c-8.8 0-16-7.2-16-16l0-32zm16 80l32 0c8.8 0 16 7.2 16 16l0 32c0 8.8-7.2 16-16 16l-32 0c-8.8 0-16-7.2-16-16l0-32c0-8.8 7.2-16 16-16zM96 240c0-8.8 7.2-16 16-16l32 0c8.8 0 16 7.2 16 16l0 32c0 8.8-7.2 16-16 16l-32 0c-8.8 0-16-7.2-16-16l0-32zm16 80l32 0c8.8 0 16 7.2 16 16l0 32c0 8.8-7.2 16-16 16l-32 0c-8.8 0-16-7.2-16-16l0-32c0-8.8 7.2-16 16-16zM96 432c0-8.8 7.2-16 16-16l32 0c8.8 0 16 7.2 16 16l0 32c0 8.8-7.2 16-16 16l-32 0c-8.8 0-16-7.2-16-16l0-32zM208 32l32 0c8.8 0 16 7.2 16 16l0 32c0 8.8-7.2 16-16 16l-32 0c-8.8 0-16-7.2-16-16l0-32c0-8.8 7.2-16 16-16zM192 144c0-8.8 7.2-16 16-16l32 0c8.8 0 16 7.2 16 16l0 32c0 8.8-7.2 16-16 16l-32 0c-8.8 0-16-7.2-16-16l0-32zm16 80l32 0c8.8 0 16 7.2 16 16l0 32c0 8.8-7.2 16-16 16l-32 0c-8.8 0-16-7.2-16-16l0-32c0-8.8 7.2-16 16-16zM192 336c0-8.8 7.2-16 16-16l32 0c8.8 0 16 7.2 16 16l0 32c0 8.8-7.2 16-16 16l-32 0c-8.8 0-16-7.2-16-16l0-32zm16 80l32 0c8.8 0 16 7.2 16 16l0 32c0 8.8-7.2 16-16 16l-32 0c-8.8 0-16-7.2-16-16l0-32c0-8.8 7.2-16 16-16zM288 48c0-8.8 7.2-16 16-16l32 0c8.8 0 16 7.2 16 16l0 32c0 8.8-7.2 16-16 16l-32 0c-8.8 0-16-7.2-16-16l0-32zm16 80l32 0c8.8 0 16 7.2 16 16l0 32c0 8.8-7.2 16-16 16l-32 0c-8.8 0-16-7.2-16-16l0-32c0-8.8 7.2-16 16-16zM288 240c0-8.8 7.2-16 16-16l32 0c8.8 0 16 7.2 16 16l0 32c0 8.8-7.2 16-16 16l-32 0c-8.8 0-16-7.2-16-16l0-32zm16 80l32 0c8.8 0 16 7.2 16 16l0 32c0 8.8-7.2 16-16 16l-32 0c-8.8 0-16-7.2-16-16l0-32c0-8.8 7.2-16 16-16zM288 432c0-8.8 7.2-16 16-16l32 0c8.8 0 16 7.2 16 16l0 32c0 8.8-7.2 16-16 16l-32 0c-8.8 0-16-7.2-16-16l0-32zM400 32l32 0c8.8 0 16 7.2 16 16l0 32c0 8.8-7.2 16-16 16l-32 0c-8.8 0-16-7.2-16-16l0-32c0-8.8 7.2-16 16-16zM384 144c0-8.8 7.2-16 16-16l32 0c8.8 0 16 7.2 16 16l0 32c0 8.8-7.2 16-16 16l-32 0c-8.8 0-16-7.2-16-16l0-32zm16 80l32 0c8.8 0 16 7.2 16 16l0 32c0 8.8-7.2 16-16 16l-32 0c-8.8 0-16-7.2-16-16l0-32c0-8.8 7.2-16 16-16zM384 336c0-8.8 7.2-16 16-16l32 0c8.8 0 16 7.2 16 16l0 32c0 8.8-7.2 16-16 16l-32 0c-8.8 0-16-7.2-16-16l0-32zm16 80l32 0c8.8 0 16 7.2 16 16l0 32c0 8.8-7.2 16-16 16l-32 0c-8.8 0-16-7.2-16-16l0-32c0-8.8 7.2-16 16-16z"/></svg>

<svg xmlns="http://www.w3.org/2000/svg" viewBox="0 0 448 512"><!--! Font Awesome Pro 6.5.2 by @fontawesome - https://fontawesome.com License - https://fontawesome.com/license (Commercial License) Copyright 2024 Fonticons, Inc. --><path d="M0 48c0-8.8 7.2-16 16-16H48c8.8 0 16 7.2 16 16V80c0 8.8-7.2 16-16 16H16C7.2 96 0 88.8 0 80V48zm0 96c0-8.8 7.2-16 16-16H48c8.8 0 16 7.2 16 16v32c0 8.8-7.2 16-16 16H16c-8.8 0-16-7.2-16-16V144zm16 80H48c8.8 0 16 7.2 16 16v32c0 8.8-7.2 16-16 16H16c-8.8 0-16-7.2-16-16V240c0-8.8 7.2-16 16-16zM0 336c0-8.8 7.2-16 16-16H48c8.8 0 16 7.2 16 16v32c0 8.8-7.2 16-16 16H16c-8.8 0-16-7.2-16-16V336zm16 80H48c8.8 0 16 7.2 16 16v32c0 8.8-7.2 16-16 16H16c-8.8 0-16-7.2-16-16V432c0-8.8 7.2-16 16-16zM96 48c0-8.8 7.2-16 16-16h32c8.8 0 16 7.2 16 16V80c0 8.8-7.2 16-16 16H112c-8.8 0-16-7.2-16-16V48zm16 80h32c8.8 0 16 7.2 16 16v32c0 8.8-7.2 16-16 16H112c-8.8 0-16-7.2-16-16V144c0-8.8 7.2-16 16-16zM96 240c0-8.8 7.2-16 16-16h32c8.8 0 16 7.2 16 16v32c0 8.8-7.2 16-16 16H112c-8.8 0-16-7.2-16-16V240zm16 80h32c8.8 0 16 7.2 16 16v32c0 8.8-7.2 16-16 16H112c-8.8 0-16-7.2-16-16V336c0-8.8 7.2-16 16-16zM96 432c0-8.8 7.2-16 16-16h32c8.8 0 16 7.2 16 16v32c0 8.8-7.2 16-16 16H112c-8.8 0-16-7.2-16-16V432zM208 32h32c8.8 0 16 7.2 16 16V80c0 8.8-7.2 16-16 16H208c-8.8 0-16-7.2-16-16V48c0-8.8 7.2-16 16-16zM192 144c0-8.8 7.2-16 16-16h32c8.8 0 16 7.2 16 16v32c0 8.8-7.2 16-16 16H208c-8.8 0-16-7.2-16-16V144zm16 80h32c8.8 0 16 7.2 16 16v32c0 8.8-7.2 16-16 16H208c-8.8 0-16-7.2-16-16V240c0-8.8 7.2-16 16-16zM192 336c0-8.8 7.2-16 16-16h32c8.8 0 16 7.2 16 16v32c0 8.8-7.2 16-16 16H208c-8.8 0-16-7.2-16-16V336zm16 80h32c8.8 0 16 7.2 16 16v32c0 8.8-7.2 16-16 16H208c-8.8 0-16-7.2-16-16V432c0-8.8 7.2-16 16-16zM288 48c0-8.8 7.2-16 16-16h32c8.8 0 16 7.2 16 16V80c0 8.8-7.2 16-16 16H304c-8.8 0-16-7.2-16-16V48zm16 80h32c8.8 0 16 7.2 16 16v32c0 8.8-7.2 16-16 16H304c-8.8 0-16-7.2-16-16V144c0-8.8 7.2-16 16-16zM288 240c0-8.8 7.2-16 16-16h32c8.8 0 16 7.2 16 16v32c0 8.8-7.2 16-16 16H304c-8.8 0-16-7.2-16-16V240zm16 80h32c8.8 0 16 7.2 16 16v32c0 8.8-7.2 16-16 16H304c-8.8 0-16-7.2-16-16V336c0-8.8 7.2-16 16-16zM288 432c0-8.8 7.2-16 16-16h32c8.8 0 16 7.2 16 16v32c0 8.8-7.2 16-16 16H304c-8.8 0-16-7.2-16-16V432zM400 32h32c8.8 0 16 7.2 16 16V80c0 8.8-7.2 16-16 16H400c-8.8 0-16-7.2-16-16V48c0-8.8 7.2-16 16-16zM384 144c0-8.8 7.2-16 16-16h32c8.8 0 16 7.2 16 16v32c0 8.8-7.2 16-16 16H400c-8.8 0-16-7.2-16-16V144zm16 80h32c8.8 0 16 7.2 16 16v32c0 8.8-7.2 16-16 16H400c-8.8 0-16-7.2-16-16V240c0-8.8 7.2-16 16-16zM384 336c0-8.8 7.2-16 16-16h32c8.8 0 16 7.2 16 16v32c0 8.8-7.2 16-16 16H400c-8.8 0-16-7.2-16-16V336zm16 80h32c8.8 0 16 7.2 16 16v32c0 8.8-7.2 16-16 16H400c-8.8 0-16-7.2-16-16V432c0-8.8 7.2-16 16-16z"/></svg>
